X: 42660
T: Whistle And I'll Come To You
R: jig
M: 6/8
K: Cmajor
GF|:EFG G2F|EFG G2F|E2c cde|~f3 dBG|
EFG G2F|EFG G2B|~c3 dgf|1 ecB c2F:|2 ecB c2A||
|:ceg gfe|fga gfe|ceg gfe|fga g2e|
fga gfe|fdc B2A|FGG G2f|1 ecB c2A:|2 ecB c2F||

